X: 1
T: Trettondedagsmarschen
C: Hjort Anders Olsson
N: Arrangerad av Anders Sparf (efter Karl Sporr, 1913)
D: R\"attviks spelmannslag RA 177
M: 2/4
L: 1/16
K: A
Ac \
| "A"e2a2 abag | a2f2 Tf2eg | "D"Tf2ed Tf2dc | "E7"B6 c2 | d4 {edc}d2B2 | G2E2 D2C2 |
| B,2E2 GABG | "A"AGAB cBcd | "A"e2a2 abag | a2f2 Tf2eg | "D"Tf2ed Tf2dc | "E7"B6 c2 |
| d4 {edc}d2B2 | G2E2 D2C2 | B,2E2 GABG | "A"{G}A6 :: c2 | "A"Acec acec | Acec acec |
| "E7"Bege bege | Bege bege | "A"Acec acec | Acec acec | "E7"B2cd EGBG | "A"{G}A6 :|
